X:673
%%etbk:tnset id:515,pos:1,rep:3x,ant:
%%etbk:wsite https://thesession.org/tunes/682
%%etbk:color #e6ffe6
%%etbk:pldat 2016-09-10T15:12,2016-08-12T17:17,2016-08-04T18:35,2016-07-15T14:47,2016-06-12T13:19,2016-05-24T15:25,2016-05-23T18:08,2016-05-10T19:35,2016-04-21T19:03,2016-04-20T16:04,2016-04-12T17:13,2016-04-11T18:37,2016-03-23T17:40,2016-03-20T10:52,2016-02-13T15:22,2016-02-08T18:34,2016-01-26T18:03,2016-01-24T15:23,2016-01-20T17:36,2016-01-19T17:28,2016-01-17T14:14,2016-01-12T17:38,2016-01-04T19:29,2016-01-02T14:47,2015-12-31T15:26,2015-08-14T16:54,2015-08-14T16:46,2015-07-08T15:53,2015-06-10T18:53,2015-05-19T15:32,2015-05-10T15:08,2015-05-05T18:17,2015-04-27T18:55,2015-04-26T13:48,2015-04-08T15:38,2015-04-06T11:59,2015-04-03T15:32
T: Master McDermott's
Z: Piano Box Version by Martin Fleischmann
H: Created 2015-03-30 /  Last Modified 2015-12-31
R: reel
M: 4/4
L: 1/8
K: Dmaj
|:D!2!F !4!{B}F2 !1!D!1!E!2!F!3!A|!5!d!3!ffe !1!d!2!BBd|!1!A2!2!FF !5!d!2!FFF|!5!B!2!F!4!AF !1!E!3!GF!1!E|
!1!DF F2 DEFA|dffe dBBd|A2FF dFFF|E!3!GF!1!E !1!D4:||
|:!5!d!3!ffe !1!dfaf|!4!g2 !5!b!4!g !5!affe|!1!d!2!BBA !2!B!3!c!1!de|!3!fdgf e2 de|
f2 af g2 bg|affe dBBd|AF F2 dF F2|EGFE D4 :||


